packages/ffe-icons/icons/filled/md/swap_horizontal_circle.svg

<svg xmlns="http://www.w3.org/2000/svg" height="24" viewBox="0 -960 960 960" width="24"><path d="M343.23-370.001h146.771q12.749 0 21.374-8.628Q520-387.258 520-400.013q0-12.756-8.625-21.371-8.625-8.615-21.374-8.615H343.23l52.309-52.925q8.307-8.307 8.5-20.576.192-12.269-9.199-21.66-8.609-8.609-20.993-8.609-12.384 0-21.076 8.693l-99.769 99.769Q242.156-414.461 242.156-400q0 14.461 10.846 25.307l99.769 99.769q8.307 8.308 20.576 8.808t21.66-8.891q8.609-8.609 8.916-20.685.308-12.077-8.384-21.384l-52.309-52.925Zm273.54-160-52.309 52.925q-8.307 8.307-8.5 20.576-.192 12.269 9.199 21.66 8.609 8.609 20.993 8.609 12.384 0 21.076-8.693l99.769-99.769q10.846-10.846 10.846-25.307 0-14.461-10.846-25.307l-99.769-99.769q-8.307-8.308-20.576-8.808t-21.66 8.891q-8.609 8.609-8.916 20.685-.308 12.077 8.384 21.384l52.309 52.925H469.999q-12.749 0-21.374 8.628Q440-572.742 440-559.987q0 12.756 8.625 21.371 8.625 8.615 21.374 8.615H616.77Zm-136.703 430q-78.836 0-148.204-29.92-69.369-29.92-120.682-81.21-51.314-51.291-81.247-120.629-29.933-69.337-29.933-148.173t29.92-148.204q29.92-69.369 81.21-120.682 51.291-51.314 120.629-81.247 69.337-29.933 148.173-29.933t148.204 29.92q69.369 29.92 120.682 81.21 51.314 51.291 81.247 120.629 29.933 69.337 29.933 148.173t-29.92 148.204q-29.92 69.369-81.21 120.682-51.291 51.314-120.629 81.247-69.337 29.933-148.173 29.933Z"/></svg>

<svg xmlns="http://www.w3.org/2000/svg" height="24" viewBox="0 -960 960 960" width="24"><path d="M343.23-370H490q12.75 0 21.38-8.63 8.62-8.63 8.62-21.38 0-12.76-8.62-21.37Q502.75-430 490-430H343.23l52.31-52.92q8.31-8.31 8.5-20.58.19-12.27-9.2-21.66-8.61-8.61-20.99-8.61-12.39 0-21.08 8.69L253-425.31q-10.84 10.85-10.84 25.31 0 14.46 10.84 25.31l99.77 99.77q8.31 8.3 20.58 8.8 12.27.5 21.66-8.89 8.61-8.61 8.91-20.68.31-12.08-8.38-21.39L343.23-370Zm273.54-160-52.31 52.92q-8.31 8.31-8.5 20.58-.19 12.27 9.2 21.66 8.61 8.61 20.99 8.61 12.39 0 21.08-8.69L707-534.69q10.84-10.85 10.84-25.31 0-14.46-10.84-25.31l-99.77-99.77q-8.31-8.3-20.58-8.8-12.27-.5-21.66 8.89-8.61 8.61-8.91 20.68-.31 12.08 8.38 21.39L616.77-590H470q-12.75 0-21.38 8.63-8.62 8.63-8.62 21.38 0 12.76 8.62 21.37Q457.25-530 470-530h146.77Zm-136.7 430q-78.84 0-148.21-29.92t-120.68-81.21q-51.31-51.29-81.25-120.63Q100-401.1 100-479.93q0-78.84 29.92-148.21t81.21-120.68q51.29-51.31 120.63-81.25Q401.1-860 479.93-860q78.84 0 148.21 29.92t120.68 81.21q51.31 51.29 81.25 120.63Q860-558.9 860-480.07q0 78.84-29.92 148.21t-81.21 120.68q-51.29 51.31-120.63 81.25Q558.9-100 480.07-100Z"/></svg>
